src/img/Frame.svg

<svg fill="none" height="18" viewBox="0 0 18 18" width="18" xmlns="http://www.w3.org/2000/svg"><path d="m16 .5h-14c-.82843 0-1.5.67157-1.5 1.5v14c0 .8284.67157 1.5 1.5 1.5h14c.8284 0 1.5-.6716 1.5-1.5v-14c0-.82843-.6716-1.5-1.5-1.5z" stroke="#000"/></svg>

<svg width="18" height="18" viewBox="0 0 18 18" fill="none" xmlns="http://www.w3.org/2000/svg">
<path d="M16 0.5H2C1.17157 0.5 0.5 1.17157 0.5 2V16C0.5 16.8284 1.17157 17.5 2 17.5H16C16.8284 17.5 17.5 16.8284 17.5 16V2C17.5 1.17157 16.8284 0.5 16 0.5Z" stroke="black"/>
</svg>
